static/img/general/ic-youtube.svg

<svg width="22" height="25" viewBox="0 0 22 25" fill="none" xmlns="http://www.w3.org/2000/svg">
<path d="M21.0193 12.9184C20.8986 12.3695 20.6309 11.9092 20.2172 11.5373C19.8031 11.1654 19.3266 10.9468 18.787 10.8817C17.0758 10.6957 14.4949 10.6028 11.0442 10.6028C7.59353 10.6028 5.01729 10.6957 3.31523 10.8817C2.76663 10.9468 2.28767 11.1654 1.87829 11.5373C1.46901 11.9094 1.19928 12.3697 1.06901 12.9184C0.827236 13.9975 0.706299 15.625 0.706299 17.8014C0.706299 20.0149 0.827236 21.6425 1.06901 22.6843C1.1901 23.2328 1.45753 23.6935 1.8714 24.0653C2.28528 24.4373 2.76194 24.6512 3.3013 24.707C5.0128 24.9023 7.59382 25 11.0443 25C14.4945 25 17.076 24.9023 18.7869 24.707C19.3265 24.6512 19.8007 24.4373 20.2101 24.0653C20.6194 23.6935 20.8891 23.2328 21.0192 22.6843C21.261 21.6053 21.3821 19.9777 21.3821 17.8014C21.3821 15.5879 21.261 13.9601 21.0193 12.9184ZM6.60805 14.3277H5.11531V22.2656H3.7203V14.3277H2.25537V13.0164H6.6081V14.3277H6.60805ZM10.3747 22.2656H9.13307V21.5121C8.63085 22.0796 8.15634 22.3632 7.70992 22.3632C7.28217 22.3632 7.01239 22.191 6.90094 21.847C6.82661 21.6238 6.78923 21.2842 6.78923 20.8285V15.3738H8.03086V20.4519C8.03086 20.7494 8.03555 20.9123 8.04493 20.9402C8.07283 21.1355 8.17041 21.2332 8.33792 21.2332C8.58898 21.2332 8.85421 21.0379 9.13312 20.6472V15.3738H10.3747V22.2656H10.3747ZM15.118 20.2008C15.118 20.8797 15.0763 21.345 14.9929 21.5962C14.8344 22.1074 14.5045 22.3632 14.0023 22.3632C13.5559 22.3632 13.1235 22.1074 12.7047 21.5962V22.2658H11.4633V13.0164H12.7047V16.0437C13.1049 15.5417 13.5372 15.2906 14.0023 15.2906C14.5045 15.2906 14.8344 15.5511 14.9929 16.0718C15.0762 16.3136 15.118 16.7739 15.118 17.4529V20.2008ZM19.8335 19.057H17.3363V20.2707C17.3363 20.9125 17.5501 21.2332 17.978 21.2332C18.2848 21.2332 18.471 21.066 18.536 20.7309C18.5544 20.6379 18.5639 20.3543 18.5639 19.88H19.8334V20.0613C19.8334 20.5172 19.8239 20.7868 19.8055 20.8707C19.7778 21.1215 19.6804 21.3726 19.5125 21.6238C19.1777 22.1168 18.6751 22.3632 18.0055 22.3632C17.3641 22.3632 16.8618 22.126 16.4989 21.6519C16.2293 21.3077 16.0946 20.7683 16.0946 20.0335V17.6199C16.0946 16.8851 16.2247 16.3457 16.4849 16.0015C16.8478 15.5273 17.3453 15.2902 17.978 15.2902C18.6012 15.2902 19.0945 15.5273 19.4567 16.0015C19.7082 16.3457 19.8335 16.8851 19.8335 17.6199V19.057Z" fill="white"/>
<path d="M13.3321 16.4203C13.1181 16.4203 12.909 16.523 12.7043 16.7273V20.9264C12.909 21.1309 13.1181 21.2332 13.3321 21.2332C13.6946 21.2332 13.8764 20.9218 13.8764 20.2984V17.3551C13.8764 16.7318 13.695 16.4203 13.3321 16.4203Z" fill="white"/>
<path d="M17.9641 16.4203C17.5455 16.4203 17.3363 16.7367 17.3363 17.3688V18.0105H18.5918V17.3688C18.5918 16.7364 18.3824 16.4203 17.9641 16.4203Z" fill="white"/>
<path d="M5.7993 5.5664V9.34722H7.19431V5.5664L8.88211 0H7.45915L6.51071 3.66912L5.52009 0H4.04138C4.30183 0.781329 4.6041 1.65086 4.94824 2.60888C5.38543 3.89228 5.66893 4.8783 5.7993 5.5664Z" fill="white"/>
<path d="M10.7515 9.44488C11.3932 9.44488 11.886 9.2077 12.2302 8.73338C12.4907 8.38923 12.6208 7.84044 12.6208 7.08721V4.64569C12.6208 3.90174 12.4904 3.3575 12.2302 3.01335C11.886 2.53903 11.3932 2.30185 10.7515 2.30185C10.1281 2.30185 9.6398 2.53903 9.28651 3.01335C9.02622 3.3575 8.896 3.90174 8.896 4.64569V7.08716C8.896 7.83111 9.02607 8.37995 9.28651 8.73333C9.63995 9.2077 10.1281 9.44488 10.7515 9.44488ZM10.1515 4.39453C10.1515 3.75276 10.3515 3.43187 10.7515 3.43187C11.1514 3.43187 11.3513 3.75276 11.3513 4.39453V7.32415C11.3513 7.9754 11.1514 8.30069 10.7515 8.30069C10.3515 8.30069 10.1515 7.97521 10.1515 7.32415V4.39453Z" fill="white"/>
<path d="M14.5877 9.44487C15.053 9.44487 15.5322 9.15653 16.0249 8.57974V9.34704H17.2945V2.38559H16.0249V7.70083C15.7458 8.10083 15.4809 8.30063 15.2295 8.30063C15.0619 8.30063 14.9643 8.19836 14.9365 7.99377C14.9272 7.97515 14.9225 7.81224 14.9225 7.50542V2.38559H13.653V7.88236C13.653 8.35658 13.6904 8.70522 13.7647 8.92858C13.8857 9.27272 14.16 9.44487 14.5877 9.44487Z" fill="white"/>
</svg>

<svg width="22" height="25" viewBox="0 0 22 25" fill="none" xmlns="http://www.w3.org/2000/svg"><path d="M21.02 12.918a2.548 2.548 0 0 0-.803-1.38 2.553 2.553 0 0 0-1.43-.656c-1.711-.186-4.292-.28-7.743-.28-3.45 0-6.027.094-7.729.28a2.531 2.531 0 0 0-1.437.655 2.65 2.65 0 0 0-.809 1.381c-.242 1.08-.363 2.707-.363 4.883 0 2.214.121 3.841.363 4.883a2.55 2.55 0 0 0 .802 1.381c.414.372.89.586 1.43.642 1.712.195 4.293.293 7.743.293s6.032-.098 7.743-.293a2.441 2.441 0 0 0 1.423-.642c.41-.372.68-.832.81-1.38.241-1.08.362-2.707.362-4.884 0-2.213-.121-3.84-.363-4.883zm-14.412 1.41H5.115v7.938H3.72v-7.938H2.255v-1.312h4.353v1.312zm3.767 7.938H9.133v-.754c-.502.568-.977.851-1.423.851-.428 0-.698-.172-.81-.516-.073-.223-.11-.563-.11-1.019v-5.454h1.24v5.078c0 .297.006.46.015.488.028.195.125.293.293.293.251 0 .516-.195.795-.586v-5.273h1.242v6.892zm4.743-2.065c0 .679-.042 1.144-.125 1.395-.159.511-.489.767-.99.767-.447 0-.88-.256-1.298-.767v.67h-1.242v-9.25h1.242v3.028c.4-.502.832-.753 1.297-.753.502 0 .832.26.99.78.084.243.126.703.126 1.382V20.2zm4.716-1.144h-2.498v1.214c0 .642.214.962.642.962.307 0 .493-.167.558-.502.018-.093.028-.377.028-.851h1.27v.181c0 .456-.01.726-.029.81-.027.25-.125.502-.293.753-.334.493-.837.74-1.506.74-.642 0-1.144-.238-1.507-.712-.27-.344-.404-.884-.404-1.619V17.62c0-.735.13-1.274.39-1.619.363-.474.86-.71 1.493-.71.623 0 1.116.236 1.479.71.251.345.377.884.377 1.619v1.437z" fill="#fff"/><path d="M13.332 16.42c-.214 0-.423.103-.628.307v4.2c.205.204.414.306.628.306.363 0 .544-.311.544-.935v-2.943c0-.623-.181-.935-.544-.935zm4.632 0c-.418 0-.628.317-.628.949v.642h1.256v-.642c0-.633-.21-.949-.628-.949zM5.8 5.566v3.781h1.394v-3.78L8.882 0H7.46l-.948 3.67L5.52 0H4.04c.26.781.563 1.65.907 2.609.437 1.283.72 2.27.851 2.957zm4.952 3.879c.641 0 1.134-.237 1.478-.712.26-.344.39-.893.39-1.646V4.646c0-.744-.13-1.288-.39-1.633-.344-.474-.837-.711-1.479-.711-.623 0-1.111.237-1.464.711-.26.345-.391.889-.391 1.633v2.441c0 .744.13 1.293.39 1.646.354.475.842.712 1.466.712zm-.6-5.05c0-.642.2-.963.6-.963.4 0 .6.32.6.963v2.93c0 .65-.2.976-.6.976-.4 0-.6-.326-.6-.977v-2.93zm4.436 5.05c.465 0 .944-.288 1.437-.865v.767h1.27V2.386h-1.27V7.7c-.28.4-.544.6-.795.6-.168 0-.266-.103-.293-.307-.01-.019-.014-.182-.014-.489v-5.12h-1.27v5.497c0 .475.037.823.112 1.047.12.344.395.516.823.516z" fill="#fff"/></svg>
